X:1
T:Title
%%score { ( 1 3 ) | ( 2 4 ) }
L:1/8
M:4/4
K:E
V:1 treble nm="Grand Piano"
V:3 treble 
V:2 bass 
V:4 bass 
V:1
 z4 z2[Q:1/4=100] [EG][FA] | [GB]3 [GB] [Ac]2 [Ae]2 | [GB]6 [EG]2 | [DF]2 [DF]2 [CE]2 [DF]2 | %4
 [EG]6 [EG][FA] | [GB]3 [GB] [Ge]3 [GB] | [Ac]2 [Ae]2 [GB]3 [GB] | [GB]2 [EAc]2 [B,EG]2 [A,DF]2 | %8
[M:3/4] [G,E]6 |[M:2/4] [B,EG]3 [A,B,F] |[M:4/4] [G,B,E]3 [G,B,E] [A,DF]2 [B,DG]2 | [G,E]4 [EGB]4 | %12
 [EAc]2 [EGB]2 [B,EG]2 [G,E]2 | [B,DF]6 E-[EF] | G3 F E2 G2 | C2 [CE]2 [CE]2 [G,B,G]2 | %16
 [A,DF]3 [G,E] [A,DF]2 [A,DG]2 |[M:3/4] [G,E]6 |] %18
V:2
 z4 z2 [E,B,]2 | [E,B,]3 [E,B,] [A,E]2 [A,C]2 | [E,E]6 [E,B,]2 | %3
 [B,,B,]2 [B,,B,]2 [B,,B,]2 [B,,B,]2 | [E,B,]6 [E,B,]2 | [E,B,]3 [E,B,] [E,B,]3 [E,E] | %6
 [A,E]2 [A,C]2 [E,E]3 [E,E] | [E,E]2 A,,2 B,,2 B,,2 |[M:3/4] E,6 |[M:2/4] E,3 E, | %10
[M:4/4] E,3 E, B,,2 B,,2 | E,4 E,4 | E,2 E,2 E,2 E,2 | B,,6 z A, | %14
 [E,B,E]3 [E,A,B,] [E,G,B,]2 [E,B,]2 | [A,,A,]2 [A,,A,]2 [A,,A,]2 E,2 | B,,3 B,, B,,2 B,,2 | %17
[M:3/4] E,6 |] %18
V:3
 x8 | x8 | x8 | x8 | x8 | x8 | x8 | x8 |[M:3/4] x6 |[M:2/4] x4 |[M:4/4] x8 | x8 | x8 | z4 z2 .G,2 | %14
 x8 | x8 | x8 |[M:3/4] x6 |] %18
V:4
 x8 | x8 | x8 | x8 | x8 | x8 | x8 | x8 |[M:3/4] x6 |[M:2/4] x4 |[M:4/4] x8 | x8 | x8 | z4 z2 E,2 | %14
 x8 | x8 | x8 |[M:3/4] x6 |] %18

